packages/foundations/assets/icons/functional/images/business & payment/cash_16.svg

<svg width="16" height="16" viewBox="0 0 16 16" fill="none" xmlns="http://www.w3.org/2000/svg">
<g clip-path="url(#clip0_184_11)">
<path fill-rule="evenodd" clip-rule="evenodd" d="M10.0345 7.99949C11.4196 8.00567 12.7536 8.5231 13.7805 9.45249L14.1695 9.83349C14.3137 9.9773 14.3977 10.1707 14.4042 10.3743C14.4108 10.5778 14.3395 10.7762 14.2048 10.929C14.0701 11.0818 13.8822 11.1774 13.6795 11.1965C13.4767 11.2155 13.2743 11.1565 13.1135 11.0315L12.8255 10.7525C12.1335 10.0615 11.2005 9.62149 10.2435 9.58849C9.28552 9.55649 9.07252 9.59149 8.79852 9.58849C8.6668 9.58323 8.53722 9.62308 8.43121 9.70145C8.3252 9.77982 8.24911 9.89202 8.21552 10.0195C8.19552 10.1005 8.24552 10.1895 8.34852 10.2065C8.41652 10.2185 9.12652 10.2835 10.4775 10.4035C10.6888 10.423 10.8836 10.5256 11.0192 10.6888C11.1547 10.8519 11.22 11.0623 11.2005 11.2735C11.1625 11.6825 10.8365 12.0235 10.4235 11.9995C9.68168 11.9426 8.94061 11.8759 8.20052 11.7995C7.80352 11.7575 7.45652 11.6325 7.03852 11.5005C6.76052 11.4125 5.88352 11.1385 4.40652 10.6805C4.19635 10.6152 3.97142 10.6145 3.76086 10.6785C3.5503 10.7425 3.3638 10.8683 3.22552 11.0395C3.17852 11.0965 3.18152 11.2045 3.31552 11.2565L6.38752 12.4315C6.94455 12.644 7.53195 12.7662 8.12752 12.7935L13.6035 12.7995C13.8157 12.7995 14.0192 12.8838 14.1692 13.0338C14.3192 13.1838 14.4035 13.3873 14.4035 13.5995C14.4035 14.0095 14.0625 14.3995 13.6035 14.3995H8.38352C7.60352 14.3995 6.71052 14.2575 6.09152 14.0255C5.67952 13.8705 4.55152 13.4425 2.71152 12.7415C2.45561 12.644 2.22644 12.4873 2.0428 12.2841C1.85916 12.081 1.72627 11.8372 1.65505 11.5728C1.58382 11.3083 1.57627 11.0308 1.63302 10.7629C1.68976 10.495 1.8092 10.2443 1.98152 10.0315C2.30363 9.63409 2.73193 9.33629 3.21662 9.17272C3.70131 9.00915 4.22248 8.98653 4.71952 9.10749L6.64752 9.69749C6.90052 8.70049 7.69752 8.05049 8.65552 7.99949H10.0345ZM5.30452 6.21449C5.53352 6.21449 6.14452 6.07449 6.19852 6.06449C6.37252 6.02749 6.58352 6.14249 6.65652 6.32949C6.79652 6.69249 6.47652 6.88049 6.38152 6.93449C6.19596 7.02018 6.00143 7.08491 5.80152 7.12749C5.58152 7.17549 5.36152 7.19949 5.13852 7.19949C4.65852 7.19949 4.26552 7.13149 3.96052 6.99449C3.6637 6.86569 3.4147 6.64712 3.24852 6.36949C3.07852 6.08949 2.96152 5.72449 2.89552 5.27449H2.39552V4.63949H2.87252V4.13949H2.39552V3.50249H2.89552C2.98152 3.04249 3.11252 2.67549 3.28952 2.39949C3.46652 2.12449 3.70952 1.92249 4.01752 1.79349C4.32552 1.66449 4.72152 1.60049 5.20752 1.60049C5.60352 1.60049 5.96052 1.65249 6.28052 1.75649C6.49352 1.82849 6.70652 2.04949 6.63252 2.33449C6.53052 2.67449 6.19552 2.72249 5.96452 2.66149C5.74468 2.60239 5.51816 2.57181 5.29052 2.57049C4.94652 2.57049 4.69952 2.64249 4.54752 2.78649C4.39652 2.93049 4.28952 3.16949 4.22952 3.50249H5.63152V4.13949H4.21452V4.63949H5.63152V5.27549H4.22952C4.27452 5.62949 4.37552 5.87449 4.53252 6.01049C4.68952 6.14749 4.94652 6.21549 5.30552 6.21549L5.30452 6.21449Z" fill="#1A1C1F"/>
</g>
<defs>
<clipPath id="clip0_184_11">
<rect width="16" height="16" fill="white"/>
</clipPath>
</defs>
</svg>

<svg xmlns="http://www.w3.org/2000/svg" width="16" height="16" fill="none"><g clip-path="url(#a)"><path fill="#1A1C1F" fill-rule="evenodd" d="M10.035 8a5.62 5.62 0 0 1 3.746 1.452l.388.381a.8.8 0 0 1-1.056 1.198l-.287-.279c-.693-.69-1.626-1.13-2.583-1.164-.957-.032-1.17.003-1.444 0a.58.58 0 0 0-.583.432c-.02.08.03.17.133.187q.103.016 2.128.196a.8.8 0 0 1 .723.87c-.037.41-.364.75-.776.726a85 85 0 0 1-2.223-.2c-.397-.041-.744-.166-1.162-.298q-.417-.133-2.632-.82a1.1 1.1 0 0 0-1.181.359c-.047.057-.044.165.09.217l3.072 1.175a5.6 5.6 0 0 0 1.74.361l5.476.007a.8.8 0 0 1 .8.8c0 .41-.341.8-.8.8h-5.22c-.78 0-1.673-.143-2.292-.375q-.619-.232-3.38-1.283a1.733 1.733 0 0 1-.73-2.71 2.7 2.7 0 0 1 2.738-.925l1.928.59C6.9 8.7 7.698 8.05 8.656 8zm-4.73-1.786c.229 0 .84-.14.894-.15.174-.037.385.078.458.265.14.363-.18.551-.275.605a2.8 2.8 0 0 1-.58.193q-.33.072-.663.072-.72 0-1.178-.205a1.55 1.55 0 0 1-.712-.625q-.255-.42-.353-1.095h-.5V4.64h.477v-.5h-.477v-.637h.5q.129-.69.394-1.103.266-.412.728-.606.461-.193 1.19-.193.594 0 1.073.156c.213.072.426.293.352.578-.102.34-.437.388-.668.327q-.332-.09-.674-.09-.516 0-.743.215-.227.216-.318.716h1.402v.637H4.215v.5h1.417v.636H4.23q.067.532.303.735.235.205.773.205z" clip-rule="evenodd"/></g><defs><clipPath id="a"><path fill="#fff" d="M0 0h16v16H0z"/></clipPath></defs></svg>
